X:1
T:Title
%%score { ( 1 4 ) | ( 2 3 ) }
L:1/8
M:6/8
K:Eb
V:1 treble nm="Grand Piano"
V:4 treble 
V:2 bass 
V:3 bass 
V:1
 z3 z2[Q:1/4=100] [EG]/[FA]/ | [GB]>[_G=A][=GB] [Gc][GB]G | FEC D2 F/G/ | %3
 [FA]>[=EG][FA] [Ad][Ac][DA] | [EG]2 [FB] [EB]2 [EG]/[FA]/ | [GB]>[_G=A][=GB] [Gc][GB]G | %6
 F2 E c2 [Ed]/[Ec]/ | [EB]>[EG][EG] .[DB]2 [A,DF] |[M:5/8] [G,E]-[G,E]- [G,E]3 | %9
[M:1/8] [B,EG]/[B,FA]/ |[M:3/4] [GB]>[_G=A] [=GB] [Gc]2 [EG] | z2 B, B,2 [B,AB]/[Ac]/ | %12
 [Ad]>[Ac] [AB][Ac] [GB][FA] |[M:5/8] [EG]-[EG]- [EG]3 |[M:1/8] G/[FA]/ | %15
[M:3/4] [GB][_G=A] [=GB] [Ge]2 [EB] | [A,EA]2 [B,EG] [CEF]2 [C_Gd]/[EGc]/ | %17
 [EGB]>[EG] [EG]B/A/- AF |[M:5/8] E-E- E3 |] %19
V:2
 z3 z2 [E,B,]/[E,B,]/ | [E,E]>[E,E][E,E] [E,E][E,E][E,B,E] | %2
 [E,A,B,][E,G,B,][E,G,B,] [F,A,B,]2 [B,D]/[B,E]/ | [B,,B,]>[B,,B,][B,,B,] [B,,B,][B,,B,][B,,B,] | %4
 [E,B,]2 [E,A,] [E,G,]2 [E,B,]/[E,B,]/ | [E,E]>[E,E][E,E] [E,E][E,E][E,E] | %6
 [F,A,D]2 [G,B,] [A,E]2 [=A,,_G,]/[A,,G,]/ | [B,,G,]>[B,,B,][B,,B,] z/ A3/2B,, | %8
[M:5/8] E,-E,- E,3 |[M:1/8] E,/E,/ |[M:3/4] [E,E]>[E,E] [E,E] [E,E]2 [E,B,] | %11
 [F,B,]2 B,, F,2 F,/[F,B,]/ | [B,,B,]>[B,,B,] [B,,B,][B,,B,] [B,,B,][B,,B,] | %13
[M:5/8] [E,B,]2 E, E,2 |[M:1/8] [E,B,E]/[E,B,]/ |[M:3/4] [E,E][E,E] [E,E] [_D,B,]2 [D,G,] | %16
 C,2 B,, A,,2 =A,,/A,,/ | B,,>[B,,B,] [B,,B,] [B,,F,]2 [B,,A,B,] | %18
[M:5/8] [E,G,B,]-[E,G,B,]- [E,G,B,]3 |] %19
V:3
 x6 | x6 | x6 | x6 | x6 | x6 | x6 | z3 .[B,,F,]3 |[M:5/8] x5 |[M:1/8] x |[M:3/4] x6 | x6 | x6 | %13
[M:5/8] x5 |[M:1/8] x |[M:3/4] x6 | x6 | x6 |[M:5/8] x5 |] %19
V:4
 x6 | x6 | x6 | x6 | x6 | x6 | x6 | x6 |[M:5/8] x5 |[M:1/8] x |[M:3/4] x6 | [DA]6 | x6 | %13
[M:5/8] z2 B, B,2 |[M:1/8] x |[M:3/4] x6 | x6 | z2 z .D3 |[M:5/8] x5 |] %19

